assets/img/services/messenger/logo.svg

<svg height="1024" viewBox="0 0 1024 1024" width="1024" xmlns="http://www.w3.org/2000/svg" xmlns:xlink="http://www.w3.org/1999/xlink"><radialGradient id="a" cx="19.247439%" cy="99.465195%" r="108.959588%"><stop offset="0" stop-color="#09f"/><stop offset=".609753877" stop-color="#a033ff"/><stop offset=".93482299" stop-color="#ff5280"/><stop offset="1" stop-color="#ff7061"/></radialGradient><g fill="none" fill-rule="evenodd"><path d="m0 0h1024v1024h-1024z" fill="none"/><path d="m512 122c-225.332 0-400 165.056-400 388 0 116.6144 47.792 217.3824 125.6224 286.984 6.5336 5.848 10.4776 14.04 10.7456 22.808l2.1784 71.152c.696 22.696 24.1392 37.464 44.9072 28.296l79.3944-35.048c6.7304-2.968 14.272-3.52 21.364-1.568 36.484 10.032 75.3144 15.376 115.788 15.376 225.332 0 400-165.056 400-388s-174.668-388-400-388z" fill="url(#a)"/><path d="m271.8016 623.4688 117.5-186.416c18.6904-29.656 58.7144-37.04 86.7584-16.008l93.4536 70.0904c8.5744 6.432 20.372 6.3976 28.9104-.0824l126.2136-95.788c16.8464-12.784 38.836 7.376 27.5624 25.2664l-117.5 186.4176c-18.692 29.6544-58.716 37.04-86.7584 16.0064l-93.456-70.092c-8.5736-6.4304-20.372-6.396-28.9096.084l-126.2144 95.788c-16.8456 12.7832-38.836-7.3768-27.56-25.2664z" fill="#fff"/></g></svg>

<?xml version="1.0" encoding="UTF-8"?>
<svg width="1024px" height="1024px" viewBox="0 0 1024 1024" version="1.1" xmlns="http://www.w3.org/2000/svg" xmlns:xlink="http://www.w3.org/1999/xlink">
    <title>logo</title>
    <defs>
        <radialGradient cx="19.2474387%" cy="99.4651948%" fx="19.2474387%" fy="99.4651948%" r="108.959588%" id="radialGradient-1">
            <stop stop-color="#0099FF" offset="0%"></stop>
            <stop stop-color="#A033FF" offset="60.9753877%"></stop>
            <stop stop-color="#FF5280" offset="93.482299%"></stop>
            <stop stop-color="#FF7061" offset="100%"></stop>
        </radialGradient>
    </defs>
    <g id="logo" stroke="none" stroke-width="1" fill="none" fill-rule="evenodd">
        <rect id="bounding-box" fill-opacity="0" fill="#FFFFFF" x="0" y="0" width="1024" height="1024"></rect>
        <g id="logo">
            <path d="M512,122 C286.668,122 112,287.056 112,510 C112,626.6144 159.792,727.3824 237.6224,796.984 C244.156,802.832 248.1,811.024 248.368,819.792 L250.5464,890.944 C251.2424,913.64 274.6856,928.408 295.4536,919.24 L374.848,884.192 C381.5784,881.224 389.12,880.672 396.212,882.624 C432.696,892.656 471.5264,898 512,898 C737.332,898 912,732.944 912,510 C912,287.056 737.332,122 512,122 Z" id="Path" fill="url(#radialGradient-1)"></path>
            <path d="M271.8016,623.4688 L389.3016,437.0528 C407.992,407.3968 448.016,400.0128 476.06,421.0448 L569.5136,491.1352 C578.088,497.5672 589.8856,497.5328 598.424,491.0528 L724.6376,395.2648 C741.484,382.4808 763.4736,402.6408 752.2,420.5312 L634.7,606.9488 C616.008,636.6032 575.984,643.9888 547.9416,622.9552 L454.4856,552.8632 C445.912,546.4328 434.1136,546.4672 425.576,552.9472 L299.3616,648.7352 C282.516,661.5184 260.5256,641.3584 271.8016,623.4688 Z" id="Path" fill="#FFFFFF"></path>
        </g>
    </g>
</svg>
